22x22/apps/cmyktool.svg

<svg xmlns="http://www.w3.org/2000/svg" width="22" height="22" version="1">
 <path style="opacity:0.2" d="m 10.499693,0.5000205 c -0.5500231,0 -1.1004151,0.2050106 -1.5115719,0.6161573 L 0.6161482,9.4890846 c -0.82231376,0.8222934 -0.82114731,2.1984094 0.0012,3.0207034 l 8.3719729,8.372904 c 0.8223138,0.822294 2.1996539,0.823461 3.0219679,0.0012 l 8.371974,-8.372905 c 0.822312,-0.822294 0.822313,-2.199587 0,-3.0218814 L 12.011268,1.1161778 C 11.60011,0.7050311 11.049719,0.5000205 10.499693,0.5000205 Z"/>
 <path style="fill:#696853" d="m 10.499693,8.3e-6 c -0.5500231,0 -1.1004151,0.2050106 -1.5115719,0.6161573 L 0.6161482,8.9890712 c -0.82231376,0.8222934 -0.82114731,2.1984098 0.0012,3.0207038 l 8.3719729,8.372904 c 0.8223138,0.822294 2.1996539,0.823461 3.0219679,0.0012 l 8.371974,-8.372905 c 0.822312,-0.822294 0.822313,-2.1995874 0,-3.0218818 L 12.011268,0.6161656 C 11.60011,0.2050189 11.049719,8.3e-6 10.499693,8.3e-6 Z"/>
 <path style="opacity:0.2" d="m 10.5,2.4995184 c -0.18334,0 -0.366855,0.06803 -0.5039061,0.2050781 L 7.205078,5.4956122 c -0.2741038,0.2740963 -0.2741427,0.733715 0,1.0078124 l 2.7910159,2.791016 c 0.2741031,0.274096 0.7337091,0.274058 1.0078121,0 l 2.791016,-2.791016 c 0.274104,-0.2740968 0.274104,-0.7337157 0,-1.0078124 L 11.003906,2.7045965 C 10.866855,2.567548 10.683341,2.4995184 10.5,2.4995184 Z m -5.0000001,5 C 5.3167998,7.4996205 5.1331424,7.5675251 4.9960937,7.7045965 L 2.205078,10.495613 c -0.2740968,0.274103 -0.2740579,0.733708 0,1.007812 l 2.7910157,2.791016 c 0.274097,0.274104 0.7337156,0.274104 1.0078124,0 l 2.7910157,-2.791016 c 0.1370487,-0.137052 0.2050781,-0.320565 0.2050781,-0.503906 0,-0.18334 -0.068032,-0.366856 -0.2050781,-0.503906 L 6.0039061,7.7045965 C 5.866858,7.5675445 5.6832,7.4994163 5.4999999,7.4995184 Z m 10.0000001,0 c -0.1832,1.021e-4 -0.366857,0.068007 -0.503906,0.2050781 l -2.791016,2.7910165 c -0.274096,0.274103 -0.274057,0.733708 0,1.007812 l 2.791016,2.791016 c 0.274097,0.274104 0.733715,0.274104 1.007812,0 l 2.791016,-2.791016 C 18.931971,11.366374 19,11.18286 19,10.999519 19,10.816179 18.93197,10.632663 18.794922,10.495613 L 16.003906,7.7045965 C 15.866858,7.5675445 15.6832,7.4994163 15.5,7.4995184 Z m -5,5.0000006 c -0.183341,0 -0.366855,0.06803 -0.5039061,0.205078 L 7.205078,15.495613 c -0.2741049,0.274097 -0.2741438,0.733715 0,1.007812 l 2.7910159,2.791016 c 0.2741041,0.274098 0.7337081,0.274059 1.0078121,0 l 2.791016,-2.791016 c 0.274105,-0.274097 0.274105,-0.733715 0,-1.007812 L 11.003906,12.704597 C 10.866854,12.567549 10.683341,12.499519 10.5,12.499519 Z"/>
 <path style="fill:#3fa7e2" d="m 10.499886,2.0000333 c -0.18334,0 -0.366804,0.068337 -0.5038551,0.2053851 L 7.2053823,4.9963782 C 6.9312785,5.2704745 6.9316675,5.7291779 7.2058102,6.0032753 l 2.7906487,2.7909579 c 0.2741031,0.2740964 0.7332161,0.2744864 1.0073191,4.28e-4 l 2.790648,-2.7909581 c 0.274104,-0.2740969 0.274104,-0.7331931 0,-1.0072899 L 11.003742,2.2054184 C 10.866691,2.0683699 10.683227,2.0000333 10.499886,2.0000333 Z"/>
 <path style="fill:#17191e" d="m 10.4999,11.999997 c -0.183341,0 -0.366806,0.06834 -0.5038571,0.205385 l -2.7906598,2.790971 c -0.2741049,0.274097 -0.2737159,0.732803 4.279e-4,1.0069 l 2.7906599,2.790971 c 0.2741041,0.274098 0.7332191,0.274487 1.0073231,4.28e-4 l 2.790659,-2.790971 c 0.274105,-0.274097 0.274105,-0.733196 0,-1.007293 l -2.790678,-2.79099 C 10.866723,12.06835 10.683258,12.000013 10.499917,12.000013 Z"/>
 <path style="fill:#f1ca42" d="m 18.999974,10.499898 c 0,-0.18334 -0.06834,-0.366804 -0.205386,-0.5038544 l -2.79096,-2.7906489 c -0.274096,-0.274104 -0.732799,-0.273715 -1.006897,4.278e-4 l -2.79096,2.7906481 c -0.274096,0.2741034 -0.274485,0.7332164 -4.28e-4,1.0073204 l 2.79096,2.790648 c 0.274097,0.274104 0.733193,0.274104 1.00729,0 l 2.790995,-2.790684 c 0.137049,-0.137051 0.205386,-0.320516 0.205386,-0.503857 z"/>
 <path style="fill:#ea72bb" d="m 8.9999969,10.499898 c 0,-0.18334 -0.068338,-0.366804 -0.2053846,-0.5038544 L 6.0036522,7.2053947 C 5.7295558,6.9312907 5.2708524,6.9316797 4.996755,7.2058225 L 2.2057957,9.9964706 C 1.9316989,10.270574 1.93131,10.729687 2.2053679,11.003791 l 2.7909592,2.790648 c 0.274097,0.274104 0.7331933,0.274104 1.0072901,0 L 8.7945957,11.003772 C 8.9316444,10.86672 8.9999803,10.683256 8.9999803,10.499915 Z"/>
 <path style="opacity:0.1;fill:#f4f4f7" d="m 10.5,1.9999992 c -0.18334,0 -0.366855,0.06803 -0.5039061,0.2050781 L 7.205078,4.996093 C 7.0044763,5.1966892 6.9538535,5.496112 7.0468749,5.7499992 7.0809605,5.656973 7.131576,5.569593 7.205078,5.496093 L 9.9960939,2.7050773 C 10.133145,2.5680292 10.31666,2.4999992 10.5,2.4999992 c 0.183341,0 0.366855,0.06803 0.503906,0.2050781 l 2.791016,2.7910157 c 0.0735,0.0735 0.124121,0.16088 0.158203,0.2539062 0.09302,-0.253887 0.0424,-0.5533097 -0.158203,-0.7539062 L 11.003906,2.2050773 C 10.866855,2.0680288 10.683341,1.9999992 10.5,1.9999992 Z m -5.0000001,5 C 5.3167998,7.0001013 5.1331424,7.0680059 4.9960937,7.2050773 L 2.205078,9.9960936 C 2.0044814,10.196695 1.953864,10.496114 2.0468749,10.75 2.0809529,10.65697 2.1315779,10.569596 2.205078,10.496094 L 4.9960937,7.7050773 C 5.1331424,7.5680059 5.3167998,7.5001013 5.4999999,7.4999992 5.6832,7.4998971 5.866858,7.5680253 6.0039061,7.7050773 l 2.7910157,2.7910167 c 0.073499,0.0735 0.1242533,0.16087 0.1582031,0.253906 0.029353,-0.08044 0.046875,-0.164986 0.046875,-0.25 0,-0.18334 -0.068032,-0.366856 -0.2050781,-0.5039064 L 6.0039061,7.2050773 C 5.866858,7.0680253 5.6832,6.9998971 5.4999999,6.9999992 Z m 10.0000001,0 c -0.1832,1.021e-4 -0.366857,0.068007 -0.503906,0.2050781 L 12.205078,9.9960936 C 12.004482,10.196695 11.953864,10.496114 12.046875,10.75 c 0.03408,-0.09303 0.0847,-0.180404 0.158203,-0.253906 L 14.996094,7.7050773 C 15.133143,7.5680062 15.3168,7.5001013 15.5,7.4999992 c 0.1832,-1.021e-4 0.366858,0.068026 0.503906,0.2050781 l 2.791016,2.7910167 c 0.0735,0.0735 0.124253,0.16087 0.158203,0.253906 C 18.982478,10.669561 19,10.585014 19,10.5 19,10.31666 18.931968,10.133144 18.794922,9.9960936 L 16.003906,7.2050773 C 15.866858,7.0680253 15.6832,6.9998971 15.5,6.9999992 Z M 10.5,12 c -0.183341,0 -0.366855,0.06803 -0.5039061,0.205078 L 7.205078,14.996094 C 7.0044755,15.19669 6.9538531,15.496113 7.0468749,15.75 7.0809609,15.65697 7.1315759,15.569594 7.205078,15.496094 L 9.9960939,12.705078 C 10.133145,12.56803 10.316659,12.5 10.5,12.5 c 0.183341,0 0.366854,0.06803 0.503906,0.205078 l 2.791016,2.791016 c 0.0735,0.0735 0.124121,0.16088 0.158203,0.253906 0.09302,-0.253887 0.0424,-0.55331 -0.158203,-0.753906 L 11.003906,12.205078 C 10.866854,12.06803 10.683341,12 10.5,12 Z"/>
 <path style="opacity:0.1;fill:#f4f4f7" d="m 10.5,-8.4e-7 c -0.5500231,0 -1.1005621,0.20408774 -1.5117189,0.61523444 L 0.6152343,8.9882802 C 0.1414337,9.4620696 -0.0490853,10.120364 0.0234374,10.75 0.0762927,10.286859 0.2667211,9.8367856 0.6152343,9.4882806 L 8.9882811,1.1152336 C 9.3994379,0.7040869 9.9499769,0.4999992 10.5,0.4999992 c 0.550026,0 1.100561,0.2040877 1.511719,0.6152344 l 8.371093,8.373047 c 0.348513,0.348505 0.540651,0.7983344 0.59375,1.2617194 0.07219,-0.629967 -0.119949,-1.2879304 -0.59375,-1.7617198 L 12.011719,0.6152336 C 11.600561,0.2040869 11.050026,-8.4e-7 10.5,-8.4e-7 Z"/>
</svg>

<svg xmlns="http://www.w3.org/2000/svg" width="22" height="22" version="1"><path style="opacity:.2" d="M10.5.5c-.55 0-1.1.205-1.512.616L.616 9.49a2.158 2.158 0 0 0 .001 3.02l8.372 8.374a2.16 2.16 0 0 0 3.022 0l8.372-8.372a2.16 2.16 0 0 0 0-3.022l-8.372-8.373A2.131 2.131 0 0 0 10.5.5z"/><path style="fill:#696853" d="M10.5 0c-.55 0-1.1.205-1.512.616L.616 8.99a2.158 2.158 0 0 0 .001 3.02l8.372 8.374a2.16 2.16 0 0 0 3.022 0l8.372-8.372a2.16 2.16 0 0 0 0-3.022L12.011.616A2.131 2.131 0 0 0 10.5 0z"/><path style="opacity:.2" d="M10.5 2.5a.71.71 0 0 0-.504.205l-2.79 2.79a.72.72 0 0 0 0 1.008l2.79 2.791a.72.72 0 0 0 1.008 0l2.79-2.79a.72.72 0 0 0 0-1.008l-2.79-2.791A.71.71 0 0 0 10.5 2.5zm-5 5a.71.71 0 0 0-.504.205l-2.79 2.79a.72.72 0 0 0 0 1.008l2.79 2.791a.72.72 0 0 0 1.008 0l2.79-2.79A.71.71 0 0 0 9 11a.71.71 0 0 0-.205-.504L6.004 7.705A.71.71 0 0 0 5.5 7.5zm10 0a.71.71 0 0 0-.504.205l-2.79 2.79a.72.72 0 0 0 0 1.008l2.79 2.791a.72.72 0 0 0 1.008 0l2.79-2.79A.71.71 0 0 0 19 11a.71.71 0 0 0-.205-.504l-2.791-2.791A.71.71 0 0 0 15.5 7.5zm-5 5a.71.71 0 0 0-.504.205l-2.79 2.79a.72.72 0 0 0 0 1.008l2.79 2.791a.72.72 0 0 0 1.008 0l2.79-2.79a.72.72 0 0 0 0-1.008l-2.79-2.791a.71.71 0 0 0-.504-.205z"/><path style="fill:#3fa7e2" d="M10.5 2a.71.71 0 0 0-.504.205l-2.79 2.791a.72.72 0 0 0 0 1.007l2.79 2.791a.72.72 0 0 0 1.008 0l2.79-2.79a.72.72 0 0 0 0-1.008l-2.79-2.79A.71.71 0 0 0 10.5 2z"/><path style="fill:#17191e" d="M10.5 12a.71.71 0 0 0-.504.205l-2.79 2.791a.72.72 0 0 0 0 1.007l2.79 2.791a.72.72 0 0 0 1.008 0l2.79-2.79a.72.72 0 0 0 0-1.008l-2.79-2.79A.71.71 0 0 0 10.5 12z"/><path style="fill:#f1ca42" d="M19 10.5a.71.71 0 0 0-.205-.504l-2.791-2.79a.72.72 0 0 0-1.007 0l-2.791 2.79a.72.72 0 0 0 0 1.008l2.79 2.79a.72.72 0 0 0 1.008 0l2.79-2.79A.71.71 0 0 0 19 10.5z"/><path style="fill:#ea72bb" d="M9 10.5a.71.71 0 0 0-.205-.504l-2.791-2.79a.72.72 0 0 0-1.007 0l-2.791 2.79a.72.72 0 0 0 0 1.008l2.79 2.79a.72.72 0 0 0 1.008 0l2.79-2.79A.71.71 0 0 0 9 10.5z"/><path style="opacity:.1;fill:#f4f4f7" d="M10.5 2a.71.71 0 0 0-.504.205l-2.79 2.791c-.202.2-.252.5-.16.754a.69.69 0 0 1 .16-.254l2.79-2.79A.71.71 0 0 1 10.5 2.5a.71.71 0 0 1 .504.205l2.79 2.791a.69.69 0 0 1 .16.254.719.719 0 0 0-.16-.754l-2.79-2.79A.71.71 0 0 0 10.5 2zm-5 5a.71.71 0 0 0-.504.205l-2.79 2.791c-.202.2-.252.5-.16.754a.69.69 0 0 1 .16-.254l2.79-2.79A.71.71 0 0 1 5.5 7.5a.71.71 0 0 1 .504.205l2.79 2.791c.074.074.125.161.16.254a.71.71 0 0 0-.158-.754l-2.792-2.79A.71.71 0 0 0 5.5 7zm10 0a.71.71 0 0 0-.504.205l-2.79 2.791c-.202.2-.252.5-.16.754a.69.69 0 0 1 .16-.254l2.79-2.79A.71.71 0 0 1 15.5 7.5a.71.71 0 0 1 .504.205l2.79 2.791c.074.074.125.161.16.254a.71.71 0 0 0-.158-.754l-2.792-2.79A.71.71 0 0 0 15.5 7zm-5 5a.71.71 0 0 0-.504.205l-2.79 2.791c-.202.2-.252.5-.16.754a.69.69 0 0 1 .16-.254l2.79-2.79a.71.71 0 0 1 .504-.206.71.71 0 0 1 .504.205l2.79 2.791a.69.69 0 0 1 .16.254.719.719 0 0 0-.16-.754l-2.79-2.79A.71.71 0 0 0 10.5 12z"/><path style="opacity:.1;fill:#f4f4f7" d="M10.5 0c-.55 0-1.1.204-1.512.615L.615 8.988a2.135 2.135 0 0 0-.592 1.762c.053-.463.244-.913.592-1.262l8.373-8.373A2.13 2.13 0 0 1 10.5.5c.55 0 1.1.204 1.512.615l8.37 8.373c.35.349.541.799.595 1.262a2.137 2.137 0 0 0-.594-1.762L12.012.615A2.13 2.13 0 0 0 10.5 0z"/></svg>
